%
Osellador-2 - ( FEATURECAM - FANUC )
( SELLADOR )
( SETUP2 - 11/17/2022 - 17:04:24 )
( ESTIMATED MACHINE TIME = 13:57.6 )
N35 G00 G20 G17 G40 G49 G80 G94
N40 G91 G28 Z0

N45 ( FACE FINISH FACE1 )
N50 T1 M6
N55 G00 G55 G90 X6.575 Y-2.9175 S5820 M03
N60 G43 H1 Z1.0 M08
N65 Z-1.9
N70 G01 Z-2.5669 F131.0
N75 X-1.575 
N80 Y-0.26 
N85 X6.575 
N90 G00 Z1.0
N95 Y-2.9175
N100 Z-2.4669
N105 G01 Z-3.1339 
N110 X-1.575 
N115 Y-0.26 
N120 X6.575 
N125 G00 Z1.0
N130 M5
N135 G91 G28 Z0 M09
N140 G28 X0 Y0
N145 G49 G90
N150 M01

N155 ( SIDE ROUGH1 SIDE1 )
N160 T2 M06
N165 G94
N170 G00 G55 X-0.5093 Y0.8078 S4965 M03
N175 G43 H2 Z1.0 M08
N180 Z-3.0339
N185 G01 Z-3.6063 F24.8
N190 X-0.25 Y0.8994 F49.6
N195 G02 X0.1056 Y1.25 I2.2326 J-1.9089
N200 G01 X0.2009 Y1.5079 
N205 X0.4932 Y1.5 
N210 X0.3786 Y1.25 
N215 G03 X-0.25 Y0.6317 I1.604 J-2.2595
N220 G01 X-0.5018 Y0.5213 
N225 X-0.5238 Y0.3402 
N230 X-0.25 Y0.3663 
N235 G02 X-0.234 Y0.3775 I1.5098 J-2.1222
N240 G01 X-0.212 Y0.393 
N245 G02 X0.6873 Y1.25 I2.1946 J-1.4025
N250 G01 X0.8255 Y1.4877 
N255 X1.2361 Y1.4669 
N260 X1.067 Y1.25 
N265 G03 X-0.089 Y0.2758 I0.9156 J-2.2595
N270 G01 X-0.1385 Y0.2411 
N275 G03 X-0.25 Y0.1583 I1.3983 J-1.997
N280 G01 X-0.5221 Y0.1187 
N285 X-0.5193 Y-0.1145 
N290 X-0.25 Y-0.0589 
N295 G02 X-0.043 Y0.1047 I1.5098 J-1.697
N300 G01 X0.035 Y0.1594 
N305 G02 X1.2483 Y1.14 I1.9476 J-1.1689
N310 X1.3409 Y1.25 I1.7832 J-1.4071
N315 G01 X1.3977 Y1.5191 
N320 X1.6486 Y1.5142 
N325 X1.5723 Y1.25 
N330 G03 X1.349 Y0.9978 I1.4592 J-1.5171
N335 X0.1601 Y0.0437 I0.6337 J-2.0073
N340 G01 X0.0525 Y-0.0316 
N345 G03 X-0.25 Y-0.2892 I1.2073 J-1.7243
N350 G01 X-0.5146 Y-0.3642 
N355 X-0.5065 Y-0.6394 
N360 X-0.25 Y-0.5402 
N365 G02 X0.148 Y-0.168 I1.5098 J-1.2157
N370 G01 X0.2865 Y-0.071 
N375 G02 X1.4504 Y0.8545 I1.6961 J-0.9384
N380 X1.8248 Y1.25 I1.581 J-1.1215
N385 G01 X1.9256 Y1.5059 
N390 X2.2487 Y1.4908 
N395 X2.1159 Y1.25 
N400 G03 X1.553 Y0.7096 I0.9156 J-1.5171
N405 X0.4143 Y-0.1848 I0.4296 J-1.7191
N410 G01 X0.2435 Y-0.3044 
N415 G03 X-0.25 Y-0.8284 I1.0163 J-1.4515
N420 G01 X-0.4918 Y-0.9594 
N425 X-0.4603 Y-1.3873 
N430 X-0.25 Y-1.2101 
N435 G02 X0.339 Y-0.4408 I1.5098 J-0.5458
N440 G01 X0.5437 Y-0.2974 
N445 G02 X1.657 Y0.5626 I1.4389 J-0.712
N450 X2.5062 Y1.25 I1.3744 J-0.8297
N455 G01 X2.6862 Y1.4579 
N460 G00 Z1.0
N465 X4.8268 Y1.4669
N470 Z-3.0339
N475 G01 Z-3.6063 F24.8
N480 X4.9959 Y1.25 F49.6
N485 G02 X5.1918 Y1.1604 I-0.9156 J-2.2595
N490 G01 X5.4664 Y1.1742 
N495 X5.525 Y0.9329 
N500 X5.25 Y0.9377 
N505 G03 X4.8146 Y1.14 I-1.1697 J-1.9471
N510 X4.722 Y1.25 I-1.7832 J-1.4071
N515 G01 X4.6653 Y1.5191 
N520 X4.4144 Y1.5142 
N525 X4.4907 Y1.25 
N530 G02 X4.714 Y0.9978 I-1.4592 J-1.5171
N535 X5.25 Y0.7406 I-0.6337 J-2.0073
N540 G01 X5.5244 Y0.7225 
N545 X5.5229 Y0.5022 
N550 X5.25 Y0.5363 
N555 G03 X4.6125 Y0.8545 I-1.1697 J-1.5458
N560 X4.2382 Y1.25 I-1.581 J-1.1215
N565 G01 X4.1374 Y1.5059 
N570 X3.8142 Y1.4908 
N575 X3.9471 Y1.25 
N580 G02 X4.51 Y0.7096 I-0.9156 J-1.5171
N585 X5.25 Y0.3216 I-0.4296 J-1.7191
N590 G01 X5.5197 Y0.2676 
N595 X5.5133 Y0.0109 
N600 X5.25 Y0.0902 
N605 G03 X4.4059 Y0.5626 I-1.1697 J-1.0997
N610 X3.5568 Y1.25 I-1.3744 J-0.8297
N615 G01 X3.3768 Y1.4579 
N620 G00 Z1.0
N625 X0.207 Y-4.4775
N630 Z-3.0339
N635 G01 Z-3.6063 F24.8
N640 X0.0525 Y-4.25 F49.6
N645 G02 X-0.2331 Y-4.0902 I1.2073 J2.4941
N650 G01 X-0.5079 Y-4.0778 
N655 X-0.5238 Y-3.852 
N660 X-0.25 Y-3.8781 
N665 G03 X0.5098 Y-4.25 I1.5098 J2.1222
N670 G01 X0.6982 Y-4.4503 
N675 X-0.5221 Y-3.6305 
N680 X-0.25 Y-3.6701 
N685 G03 X1.2598 Y-4.1938 I1.5098 J1.9142
N690 G01 X2.4409 
N695 G03 X3.0315 Y-4.1212 I0. J2.4379
N700 X3.622 Y-4.1938 I0.5906 J2.3653
N705 G01 X4.8032 
N710 G03 X5.1895 Y-4.163 I0. J2.4379
N715 G01 X5.4465 Y-4.261 
N720 X5.5106 Y-4.0709 
N725 X5.25 Y-3.983 
N730 G02 X4.8032 Y-4.0273 I-0.4468 J2.2271
N735 G01 X3.622 
N740 G02 X3.0315 Y-3.9492 I0. J2.2714
N745 X2.4409 Y-4.0273 I-0.5906 J2.1933
N750 G01 X1.2598 
N755 G02 X-0.25 Y-3.4529 I0. J2.2714
N760 G01 X-0.5193 Y-3.3974 
N765 X-0.5146 Y-3.1476 
N770 X-0.25 Y-3.2226 
N775 G03 X1.2598 Y-3.8608 I1.5098 J1.4667
N780 G01 X2.4409 
N785 G03 X3.0315 Y-3.7763 I0. J2.1049
N790 X3.622 Y-3.8608 I0.5906 J2.0204
N795 G01 X4.8032 
N800 G03 X5.25 Y-3.8129 I0. J2.1049
N805 G01 X5.5119 Y-3.8967 
N810 X5.5134 Y-3.721 
N815 X5.25 Y-3.6421 
N820 G02 X4.8032 Y-3.6943 I-0.4468 J1.8862
N825 G01 X3.622 
N830 G02 X3.0315 Y-3.6022 I0. J1.9384
N835 X2.4409 Y-3.6943 I-0.5906 J1.8463
N840 G01 X1.2598 
N845 G02 X-0.25 Y-2.9716 I0. J1.9384
N850 G01 X-0.5065 Y-2.8724 
N855 X-0.4918 Y-2.5524 
N860 X-0.25 Y-2.6834 
N865 G03 X1.2598 Y-3.5278 I1.5098 J0.9275
N870 G01 X2.4409 
N875 G03 X3.0315 Y-3.4265 I0. J1.7719
N880 X3.622 Y-3.5278 I0.5906 J1.6706
N885 G01 X4.8032 
N890 G03 X5.25 Y-3.4706 I0. J1.7719
N895 G01 X5.5151 Y-3.5436 
N900 X5.517 Y-3.3637 
N905 X5.25 Y-3.2979 
N910 G02 X4.8032 Y-3.3613 I-0.4468 J1.542
N915 G01 X3.622 
N920 G02 X3.0315 Y-3.2488 I0. J1.6054
N925 X2.4409 Y-3.3613 I-0.5906 J1.4929
N930 G01 X1.2598 
N935 G02 X-0.25 Y-2.3017 I0. J1.6054
N940 G01 X-0.4603 Y-2.1245 
N945 G00 Z1.0
N950 X5.5191 Y-3.1804
N955 Z-3.0339
N960 G01 Z-3.6063 F24.8
N965 X5.25 Y-3.1237 F49.6
N970 G02 X4.8032 Y-3.1948 I-0.4468 J1.3678
N975 G01 X3.622 
N980 G02 X3.0315 Y-3.0681 I0. J1.4389
N985 X2.4409 Y-3.1948 I-0.5906 J1.3122
N990 G01 X1.2598 
N995 G02 X0.4345 Y-0.5772 I0. J1.4389
N1000 G01 X0.6751 Y-0.4087 
N1005 G02 X1.7632 Y0.4126 I1.3075 J-0.6008
N1010 X4.2998 Y0.4126 I1.2683 J-0.6797
N1015 X5.25 Y-0.1714 I-0.2194 J-1.4221
N1020 G01 X5.5005 Y-0.2849 
N1025 X5.4702 Y-0.6733 
N1030 X5.25 Y-0.5085 
N1035 G03 X4.1905 Y0.2582 I-1.1697 J-0.501
N1040 X1.8725 Y0.2582 I-1.159 J-0.5252
N1045 X0.8088 Y-0.5184 I0.1101 J-1.2677
N1050 G01 X0.53 Y-0.7136 
N1055 G03 X1.2598 Y-3.0283 I0.7298 J-1.0423
N1060 G01 X2.4409 
N1065 G03 X3.0315 Y-2.883 I0. J1.2724
N1070 X3.622 Y-3.0283 I0.5906 J1.1271
N1075 G01 X4.8032 
N1080 G03 X5.25 Y-2.9473 I0. J1.2724
N1085 G01 X5.5213 Y-2.9924 
N1090 X5.5234 Y-2.7971 
N1095 X5.25 Y-2.7675 
N1100 G02 X4.8032 Y-2.8618 I-0.4468 J1.0116
N1105 G01 X3.622 
N1110 G02 X3.0315 Y-2.691 I0. J1.1059
N1115 X2.4409 Y-2.8618 I-0.5906 J0.9351
N1120 G01 X1.2598 
N1125 G02 X0.6255 Y-0.85 I0. J1.1059
N1130 G01 X0.9453 Y-0.626 
N1135 G02 X1.9826 Y0.0965 I1.0373 J-0.3834
N1140 G01 X1.987 
N1145 G02 X4.076 Y0.0965 I1.0445 J-0.3635
N1150 G01 X4.0803 
N1155 G02 X5.1177 Y-0.626 I0. J-1.1059
N1160 G01 X5.25 Y-0.7187 
N1165 X5.524 Y-0.7427 
N1170 Y-0.9459 
N1175 X5.25 Y-0.922 
N1180 X4.9776 Y-0.7312 
N1185 G03 X4.0803 Y-0.07 I-0.8973 J-0.2782
N1190 G01 X3.95 
N1195 G03 X2.1129 Y-0.07 I-0.9185 J-0.197
N1200 G01 X1.9826 
N1205 G03 X1.0853 Y-0.7312 I0. J-0.9394
N1210 G01 X0.721 Y-0.9864 
N1215 G03 X1.2598 Y-2.6953 I0.5388 J-0.7695
N1220 G01 X2.4409 
N1225 G03 X3.0315 Y-2.4865 I0. J0.9394
N1230 X3.622 Y-2.6953 I0.5906 J0.7306
N1235 G01 X4.8032 
N1240 G03 X5.25 Y-2.5823 I0. J0.9394
N1245 G01 X5.5249 Y-2.5899 
N1250 X5.5238 Y-2.3611 
N1255 X5.25 Y-2.3866 
N1260 G02 X4.8032 Y-2.5288 I-0.4468 J0.6307
N1265 G01 X3.622 
N1270 G02 X3.099 Y-2.325 I0. J0.7729
N1275 X3.0315 Y-2.3147 I0.0825 J0.7685
N1280 X2.964 Y-2.325 I-0.15 J0.7582
N1285 X2.4409 Y-2.5288 I-0.5231 J0.5691
N1290 G01 X1.2598 
N1295 G02 X0.8165 Y-1.1228 I0. J0.7729
N1300 G01 X1.2301 Y-0.8332 
N1305 G02 X1.9826 Y-0.2365 I0.7526 J-0.1763
N1310 G01 X2.2591 
N1315 G02 X3.8038 Y-0.2365 I0.7723 J-0.0305
N1320 G01 X4.0803 
N1325 G02 X4.8329 Y-0.8332 I0. J-0.7729
N1330 G01 X5.2465 Y-1.1228 
N1335 G02 X5.25 Y-1.1252 I-0.4433 J-0.6332
N1340 G01 X5.5238 Y-1.1507 
N1345 X5.5123 Y-1.4284 
N1350 X5.25 Y-1.3459 
N1355 G03 X5.151 Y-1.2591 I-0.4468 J-0.41
N1360 G01 X4.6816 Y-0.9305 
N1365 G03 X4.0803 Y-0.403 I-0.6013 J-0.079
N1370 G01 X3.7395 
N1375 G02 X3.6379 Y-0.2678 I0.0402 J0.136
N1380 G01 Y-0.2671 
N1385 G03 X2.425 Y-0.2671 I-0.6064 J0.
N1390 G01 Y-0.2678 
N1395 G02 X2.3235 Y-0.403 I-0.1418 J0.0007
N1400 G01 X1.9826 
N1405 G03 X1.3814 Y-0.9305 I0. J-0.6064
N1410 G01 X0.912 Y-1.2591 
N1415 G03 X1.2598 Y-2.3623 I0.3478 J-0.4968
N1420 G01 X2.4409 
N1425 G03 X2.8906 Y-2.1628 I0. J0.6064
N1430 X3.0315 Y-2.144 I-0.0091 J0.6064
N1435 X3.1724 Y-2.1628 I0.15 J0.5876
N1440 X3.622 Y-2.3623 I0.4497 J0.4069
N1445 G01 X4.8032 
N1450 G03 X5.25 Y-2.1659 I0. J0.6064
N1455 G01 X5.5123 Y-2.0834 
N1460 G03 X5.0858 Y-2.093 I-0.2072 J-0.271
N1465 G02 X4.8032 Y-2.1958 I-0.2827 J0.3371
N1470 G01 X3.622 
N1475 G02 X3.2502 Y-1.991 I0. J0.4399
N1480 X3.0315 Y-1.97 I-0.0687 J0.4345
N1485 X2.8128 Y-1.991 I-0.15 J0.4136
N1490 X2.4409 Y-2.1958 I-0.3719 J0.2351
N1495 G01 X1.2598 
N1500 G02 X1.0075 Y-1.3955 I0. J0.4399
N1505 G01 X1.5428 Y-1.0207 
N1510 G02 X1.9826 Y-0.5695 I0.4398 J0.0112
N1515 G01 X2.3429 
N1520 G03 X2.5915 Y-0.2686 I-0.0597 J0.3025
N1525 G01 Y-0.2671 
N1530 G02 X3.4714 Y-0.2671 I0.4399 J0.
N1535 G01 Y-0.2686 
N1540 G03 X3.7201 Y-0.5695 I0.3083 J0.0016
N1545 G01 X4.0803 
N1550 G02 X4.5201 Y-1.0207 I0. J-0.4399
N1555 G01 X5.0555 Y-1.3955 
N1560 G02 X5.2026 Y-1.9403 I-0.2523 J-0.3604
N1565 X5.0801 Y-1.9809 I-0.0802 J0.037
N1570 G03 X4.9513 Y-1.9858 I-0.0604 J-0.1111
N1575 G02 X4.8032 Y-2.0293 I-0.1481 J0.2299
N1580 G01 X3.622 
N1585 G02 X3.3491 Y-1.7725 I0. J0.2734
N1590 X3.0315 Y-1.7851 I-0.1676 J0.216
N1595 X2.7139 Y-1.7725 I-0.15 J0.2286
N1600 X2.4409 Y-2.0293 I-0.2729 J0.0166
N1605 G01 X1.2598 
N1610 G02 X1.103 Y-1.5319 I0. J0.2734
N1615 G01 X1.6594 Y-1.1423 
N1620 G03 X1.7102 Y-1.0333 I-0.069 J0.0985
N1625 G02 X1.9826 Y-0.736 I0.2724 J0.0238
N1630 G01 X2.3574 
N1635 G03 X2.758 Y-0.2695 I-0.0741 J0.469
N1640 G01 Y-0.2671 
N1645 G02 X3.3049 Y-0.2671 I0.2734 J0.
N1650 G01 Y-0.2695 
N1655 G03 X3.7056 Y-0.736 I0.4748 J0.0025
N1660 G01 X4.0803 
N1665 G02 X4.3527 Y-1.0333 I0. J-0.2734
N1670 G03 X4.4036 Y-1.1423 I0.1198 J-0.0105
N1675 G01 X4.96 Y-1.5319 
N1680 G02 X4.9513 Y-1.9858 I-0.1568 J-0.224
N1685 G00 Z1.0
N1690 X2.9995 Y-1.0191
N1695 Z-3.0339
N1700 G01 Z-3.1239 F24.8
N1705 X3.0696 Y-1.1227 Z-3.1346 
N1710 X2.9995 Y-1.0191 Z-3.1453 
N1715 X3.0696 Y-1.1227 Z-3.156 
N1720 X2.9995 Y-1.0191 Z-3.1667 
N1725 X3.0696 Y-1.1227 Z-3.1775 
N1730 X2.9995 Y-1.0191 Z-3.1882 
N1735 X3.0696 Y-1.1227 Z-3.1989 
N1740 X2.9995 Y-1.0191 Z-3.2096 
N1745 X3.0696 Y-1.1227 Z-3.2203 
N1750 X2.9995 Y-1.0191 Z-3.2311 
N1755 X3.0696 Y-1.1227 Z-3.2418 
N1760 X2.9995 Y-1.0191 Z-3.2525 
N1765 X3.0696 Y-1.1227 Z-3.2632 
N1770 X2.9995 Y-1.0191 Z-3.274 
N1775 X3.0696 Y-1.1227 Z-3.2847 
N1780 X2.9995 Y-1.0191 Z-3.2954 
N1785 X3.0696 Y-1.1227 Z-3.3061 
N1790 X2.9995 Y-1.0191 Z-3.3168 
N1795 X3.0696 Y-1.1227 Z-3.3276 
N1800 X2.9995 Y-1.0191 Z-3.3383 
N1805 X3.0696 Y-1.1227 Z-3.349 
N1810 X2.9995 Y-1.0191 Z-3.3597 
N1815 X3.0696 Y-1.1227 Z-3.3704 
N1820 X2.9995 Y-1.0191 Z-3.3812 
N1825 X3.0696 Y-1.1227 Z-3.3919 
N1830 X2.9995 Y-1.0191 Z-3.4026 
N1835 X3.0696 Y-1.1227 Z-3.4133 
N1840 X2.9995 Y-1.0191 Z-3.424 
N1845 X3.0696 Y-1.1227 Z-3.4348 
N1850 X2.9995 Y-1.0191 Z-3.4455 
N1855 X3.0696 Y-1.1227 Z-3.4562 
N1860 X2.9995 Y-1.0191 Z-3.4669 
N1865 X3.0696 Y-1.1227 Z-3.4776 
N1870 X2.9995 Y-1.0191 Z-3.4884 
N1875 X3.0696 Y-1.1227 Z-3.4991 
N1880 X2.9995 Y-1.0191 Z-3.5098 
N1885 X3.0696 Y-1.1227 Z-3.5205 
N1890 X2.9995 Y-1.0191 Z-3.5313 
N1895 X3.0696 Y-1.1227 Z-3.542 
N1900 X2.9995 Y-1.0191 Z-3.5527 
N1905 X3.0696 Y-1.1227 Z-3.5634 
N1910 X2.9995 Y-1.0191 Z-3.5741 
N1915 X3.0696 Y-1.1227 Z-3.5849 
N1920 X2.9995 Y-1.0191 Z-3.5956 
N1925 X3.0696 Y-1.1227 Z-3.6063 
N1930 G02 X3.1494 Y-1.0862 I0.1488 J-0.22 F49.6
N1935 X3.0343 Y-0.983 I0.6303 J0.8191
N1940 X2.9185 Y-1.0876 I-0.7511 J0.716
N1945 X3.0078 Y-1.1332 I-0.0739 J-0.2551
N1950 X3.0205 Y-1.1367 I-0.0641 J-0.2578
N1955 X3.0424 Y-1.1367 I0.0109 J-0.2654
N1960 X3.0552 Y-1.1332 I0.0768 J-0.2543
N1965 X3.0696 Y-1.1227 I0.1632 J-0.2096
N1970 G00 Z1.0
N1975 X3.7309 Y-1.2948
N1980 Z-3.0339
N1985 G01 Z-3.1239 F24.8
N1990 X3.8416 Z-3.1333 
N1995 X3.7309 Z-3.1428 
N2000 X3.8416 Z-3.1522 
N2005 X3.7309 Z-3.1617 
N2010 X3.8416 Z-3.1712 
N2015 X3.7309 Z-3.1806 
N2020 X3.8416 Z-3.1901 
N2025 X3.7309 Z-3.1995 
N2030 X3.8416 Z-3.209 
N2035 X3.7309 Z-3.2185 
N2040 X3.8416 Z-3.2279 
N2045 X3.7309 Z-3.2374 
N2050 X3.8416 Z-3.2468 
N2055 X3.7309 Z-3.2563 
N2060 X3.8416 Z-3.2658 
N2065 X3.7309 Z-3.2752 
N2070 X3.8416 Z-3.2847 
N2075 X3.7309 Z-3.2941 
N2080 X3.8416 Z-3.3036 
N2085 X3.7309 Z-3.3131 
N2090 X3.8416 Z-3.3225 
N2095 X3.7309 Z-3.332 
N2100 X3.8416 Z-3.3414 
N2105 X3.7309 Z-3.3509 
N2110 X3.8416 Z-3.3603 
N2115 X3.7309 Z-3.3698 
N2120 X3.8416 Z-3.3793 
N2125 X3.7309 Z-3.3887 
N2130 X3.8416 Z-3.3982 
N2135 X3.7309 Z-3.4076 
N2140 X3.8416 Z-3.4171 
N2145 X3.7309 Z-3.4266 
N2150 X3.8416 Z-3.436 
N2155 X3.7309 Z-3.4455 
N2160 X3.8416 Z-3.4549 
N2165 X3.7309 Z-3.4644 
N2170 X3.8416 Z-3.4739 
N2175 X3.7309 Z-3.4833 
N2180 X3.8416 Z-3.4928 
N2185 X3.7309 Z-3.5022 
N2190 X3.8416 Z-3.5117 
N2195 X3.7309 Z-3.5212 
N2200 X3.8416 Z-3.5306 
N2205 X3.7309 Z-3.5401 
N2210 X3.8416 Z-3.5495 
N2215 X3.7309 Z-3.559 
N2220 X3.8416 Z-3.5685 
N2225 X3.7309 Z-3.5779 
N2230 X3.8416 Z-3.5874 
N2235 X3.7309 Z-3.5968 
N2240 X3.8416 Z-3.6063 
N2245 X3.7309 F49.6
N2250 G02 X3.8486 Y-1.4706 I-0.4985 J-0.4611
N2255 G01 X3.9444 
N2260 G02 X3.8416 Y-1.2948 I0.5281 J0.4268
N2265 G00 Z1.0
N2270 X2.2213 
N2275 Z-3.0339
N2280 G01 Z-3.1239 F24.8
N2285 X2.3321 Z-3.1333 
N2290 X2.2213 Z-3.1428 
N2295 X2.3321 Z-3.1522 
N2300 X2.2213 Z-3.1617 
N2305 X2.3321 Z-3.1712 
N2310 X2.2213 Z-3.1806 
N2315 X2.3321 Z-3.1901 
N2320 X2.2213 Z-3.1995 
N2325 X2.3321 Z-3.209 
N2330 X2.2213 Z-3.2185 
N2335 X2.3321 Z-3.2279 
N2340 X2.2213 Z-3.2374 
N2345 X2.3321 Z-3.2468 
N2350 X2.2213 Z-3.2563 
N2355 X2.3321 Z-3.2658 
N2360 X2.2213 Z-3.2752 
N2365 X2.3321 Z-3.2847 
N2370 X2.2213 Z-3.2941 
N2375 X2.3321 Z-3.3036 
N2380 X2.2213 Z-3.3131 
N2385 X2.3321 Z-3.3225 
N2390 X2.2213 Z-3.332 
N2395 X2.3321 Z-3.3414 
N2400 X2.2213 Z-3.3509 
N2405 X2.3321 Z-3.3603 
N2410 X2.2213 Z-3.3698 
N2415 X2.3321 Z-3.3793 
N2420 X2.2213 Z-3.3887 
N2425 X2.3321 Z-3.3982 
N2430 X2.2213 Z-3.4076 
N2435 X2.3321 Z-3.4171 
N2440 X2.2213 Z-3.4266 
N2445 X2.3321 Z-3.436 
N2450 X2.2213 Z-3.4455 
N2455 X2.3321 Z-3.4549 
N2460 X2.2213 Z-3.4644 
N2465 X2.3321 Z-3.4739 
N2470 X2.2213 Z-3.4833 
N2475 X2.3321 Z-3.4928 
N2480 X2.2213 Z-3.5022 
N2485 X2.3321 Z-3.5117 
N2490 X2.2213 Z-3.5212 
N2495 X2.3321 Z-3.5306 
N2500 X2.2213 Z-3.5401 
N2505 X2.3321 Z-3.5495 
N2510 X2.2213 Z-3.559 
N2515 X2.3321 Z-3.5685 
N2520 X2.2213 Z-3.5779 
N2525 X2.3321 Z-3.5874 
N2530 X2.2213 Z-3.5968 
N2535 X2.3321 Z-3.6063 
N2540 X2.2213 F49.6
N2545 G02 X2.1185 Y-1.4706 I-0.6309 J0.251
N2550 G01 X2.2143 
N2555 G02 X2.3321 Y-1.2948 I0.6162 J-0.2853
N2560 G00 Z1.0
N2565 M5
N2570 G91 G28 Z0 M09
N2575 G28 X0 Y0
N2580 G49 G90
N2585 M01

N2590 ( SIDE ROUGH2 SIDE1 )
N2595 T3 M06
N2600 G94
N2605 G00 G55 X2.693 Y-1.7174 S7000 M03
N2610 G43 H3 Z1.0 M08
N2615 Z-3.0339
N2620 G01 Z-3.2913 F13.1
N2625 X2.712 Y-1.616 F26.2
N2630 G02 X2.708 Y-1.6029 I0.1695 J0.0596
N2635 G01 X2.7041 Y-1.5883 
N2640 G03 X2.6681 Y-1.6229 I0.1265 J-0.1676
N2645 G01 X2.6514 Y-1.7246 
N2650 X2.6082 Y-1.848 
N2655 X2.5581 Y-1.7578 
N2660 G03 X2.5581 Y-1.7559 I-0.1172 J0.001
N2665 G02 X2.7444 Y-1.4975 I0.2724 J0.
N2670 G01 X2.7683 Y-1.5868 
N2675 G03 X2.8056 Y-1.6458 I0.1132 J0.0303
N2680 G01 X2.8403 Y-1.7429 
N2685 X2.9078 Y-1.7455 
N2690 X2.95 Y-1.6515 
N2695 G03 X2.9859 Y-1.6096 I-0.0686 J0.095
N2700 G01 X3.0207 Y-1.5413 
N2705 G03 X3.0315 Y-1.5404 I-0.0168 J0.2724
N2710 X3.0422 Y-1.5413 I0.0276 J0.2715
N2715 G01 X3.0771 Y-1.6096 
N2720 G03 X3.1129 Y-1.6515 I0.1044 J0.0532
N2725 G01 X3.1552 Y-1.7455 
N2730 X3.37 Y-1.7174 
N2735 X3.3509 Y-1.616 
N2740 G03 X3.355 Y-1.6029 I-0.1695 J0.0596
N2745 G01 X3.3589 Y-1.5883 
N2750 G02 X3.3949 Y-1.6229 I-0.1265 J-0.1676
N2755 G01 X3.4116 Y-1.7246 
N2760 X3.4548 Y-1.848 
N2765 X3.5049 Y-1.7578 
N2770 G02 X3.5049 Y-1.7559 I0.1172 J0.001
N2775 G03 X3.3186 Y-1.4975 I-0.2724 J0.
N2780 G01 X3.2947 Y-1.5868 
N2785 G02 X3.2573 Y-1.6458 I-0.1132 J0.0303
N2790 G01 X3.2227 Y-1.7429 
N2795 X2.693 Y-1.7174 
N2800 Z-3.4488 F13.1
N2805 X2.712 Y-1.616 F26.2
N2810 G02 X2.708 Y-1.6029 I0.1695 J0.0596
N2815 G01 X2.7041 Y-1.5883 
N2820 G03 X2.6681 Y-1.6229 I0.1265 J-0.1676
N2825 G01 X2.6514 Y-1.7246 
N2830 X2.6082 Y-1.848 
N2835 X2.5581 Y-1.7578 
N2840 G03 X2.5581 Y-1.7559 I-0.1172 J0.001
N2845 G02 X2.7444 Y-1.4975 I0.2724 J0.
N2850 G01 X2.7683 Y-1.5868 
N2855 G03 X2.8056 Y-1.6458 I0.1132 J0.0303
N2860 G01 X2.8403 Y-1.7429 
N2865 X2.9078 Y-1.7455 
N2870 X2.95 Y-1.6515 
N2875 G03 X2.9859 Y-1.6096 I-0.0686 J0.095
N2880 G01 X3.0207 Y-1.5413 
N2885 G03 X3.0315 Y-1.5404 I-0.0168 J0.2724
N2890 X3.0422 Y-1.5413 I0.0276 J0.2715
N2895 G01 X3.0771 Y-1.6096 
N2900 G03 X3.1129 Y-1.6515 I0.1044 J0.0532
N2905 G01 X3.1552 Y-1.7455 
N2910 X3.37 Y-1.7174 
N2915 X3.3509 Y-1.616 
N2920 G03 X3.355 Y-1.6029 I-0.1695 J0.0596
N2925 G01 X3.3589 Y-1.5883 
N2930 G02 X3.3949 Y-1.6229 I-0.1265 J-0.1676
N2935 G01 X3.4116 Y-1.7246 
N2940 X3.4548 Y-1.848 
N2945 X3.5049 Y-1.7578 
N2950 G02 X3.5049 Y-1.7559 I0.1172 J0.001
N2955 G03 X3.3186 Y-1.4975 I-0.2724 J0.
N2960 G01 X3.2947 Y-1.5868 
N2965 G02 X3.2573 Y-1.6458 I-0.1132 J0.0303
N2970 G01 X3.2227 Y-1.7429 
N2975 X2.693 Y-1.7174 
N2980 Z-3.6063 F13.1
N2985 X2.712 Y-1.616 F26.2
N2990 G02 X2.708 Y-1.6029 I0.1695 J0.0596
N2995 G01 X2.7041 Y-1.5883 
N3000 G03 X2.6681 Y-1.6229 I0.1265 J-0.1676
N3005 G01 X2.6514 Y-1.7246 
N3010 X2.6082 Y-1.848 
N3015 X2.5581 Y-1.7578 
N3020 G03 X2.5581 Y-1.7559 I-0.1172 J0.001
N3025 G02 X2.7444 Y-1.4975 I0.2724 J0.
N3030 G01 X2.7683 Y-1.5868 
N3035 G03 X2.8056 Y-1.6458 I0.1132 J0.0303
N3040 G01 X2.8403 Y-1.7429 
N3045 X2.9078 Y-1.7455 
N3050 X2.95 Y-1.6515 
N3055 G03 X2.9859 Y-1.6096 I-0.0686 J0.095
N3060 G01 X3.0207 Y-1.5413 
N3065 G03 X3.0315 Y-1.5404 I-0.0168 J0.2724
N3070 X3.0422 Y-1.5413 I0.0276 J0.2715
N3075 G01 X3.0771 Y-1.6096 
N3080 G03 X3.1129 Y-1.6515 I0.1044 J0.0532
N3085 G01 X3.1552 Y-1.7455 
N3090 X3.37 Y-1.7174 
N3095 X3.3509 Y-1.616 
N3100 G03 X3.355 Y-1.6029 I-0.1695 J0.0596
N3105 G01 X3.3589 Y-1.5883 
N3110 G02 X3.3949 Y-1.6229 I-0.1265 J-0.1676
N3115 G01 X3.4116 Y-1.7246 
N3120 X3.4548 Y-1.848 
N3125 X3.5049 Y-1.7578 
N3130 G02 X3.5049 Y-1.7559 I0.1172 J0.001
N3135 G03 X3.3186 Y-1.4975 I-0.2724 J0.
N3140 G01 X3.2947 Y-1.5868 
N3145 G02 X3.2573 Y-1.6458 I-0.1132 J0.0303
N3150 G01 X3.2227 Y-1.7429 
N3155 G00 Z1.0
N3160 X3.6091 Y-0.828
N3165 Z-3.0339
N3170 G01 Z-3.2913 F13.1
N3175 X3.6902 Y-0.8917 F26.2
N3180 G03 X3.6942 Y-0.8923 I0.0895 J0.6247
N3185 G01 X3.6977 
N3190 X3.787 Y-0.8407 
N3195 X3.6091 Y-0.828 
N3200 Z-3.4488 F13.1
N3205 X3.6902 Y-0.8917 F26.2
N3210 G03 X3.6942 Y-0.8923 I0.0895 J0.6247
N3215 G01 X3.6977 
N3220 X3.787 Y-0.8407 
N3225 X3.6091 Y-0.828 
N3230 Z-3.6063 F13.1
N3235 X3.6902 Y-0.8917 F26.2
N3240 G03 X3.6942 Y-0.8923 I0.0895 J0.6247
N3245 G01 X3.6977 
N3250 X3.787 Y-0.8407 
N3255 G00 Z1.0
N3260 X2.276 
N3265 Z-3.0339
N3270 G01 Z-3.2913 F13.1
N3275 X2.3653 Y-0.8923 F26.2
N3280 X2.3688 
N3285 G03 X2.3728 Y-0.8917 I-0.0855 J0.6252
N3290 G01 X2.4539 Y-0.828 
N3295 X2.276 Y-0.8407 
N3300 Z-3.4488 F13.1
N3305 X2.3653 Y-0.8923 F26.2
N3310 X2.3688 
N3315 G03 X2.3728 Y-0.8917 I-0.0855 J0.6252
N3320 G01 X2.4539 Y-0.828 
N3325 X2.276 Y-0.8407 
N3330 Z-3.6063 F13.1
N3335 X2.3653 Y-0.8923 F26.2
N3340 X2.3688 
N3345 G03 X2.3728 Y-0.8917 I-0.0855 J0.6252
N3350 G01 X2.4539 Y-0.828 
N3355 X2.4669 Y-0.8708 F15.8
N3360 G03 X2.5171 Y-0.8784 I0.0318 J0.0406 F7.9
N3365 X2.9377 Y-0.2704 I-0.2338 J0.6113 F13.8
N3370 G01 Y-0.2671 F15.8
N3375 G02 X3.1252 Y-0.2671 I0.0938 J0. F23.6
N3380 G01 Y-0.2704 F15.8
N3385 G03 X3.6926 Y-0.9157 I0.6545 J0.0034 F13.8
N3390 G01 X4.0803 F15.8
N3395 G02 X4.1737 Y-1.0176 I0. J-0.0938 F23.6
N3400 G03 X4.3005 Y-1.2895 I0.2988 J-0.0261 F12.0
N3405 G01 X4.8569 Y-1.6791 F15.8
N3410 G02 X4.8032 Y-1.8497 I-0.0538 J-0.0768 F23.6
N3415 G01 X3.622 F15.8
N3420 G02 X3.5283 Y-1.7559 I0. J0.0938 F23.6
N3425 G03 X3.3021 Y-1.4684 I-0.2959 J0. F12.0
N3430 G01 X3.272 Y-1.5807 F15.8
N3435 G02 X3.098 Y-1.599 I-0.0906 J0.0243 F23.6
N3440 G01 X3.0569 Y-1.5183 F15.8
N3445 G02 X3.0315 Y-1.5168 I0.0024 J0.2495 F23.6
N3450 X3.0061 Y-1.5183 I-0.0278 J0.2479
N3455 G01 X2.965 Y-1.599 F15.8
N3460 G02 X2.7909 Y-1.5807 I-0.0835 J0.0426 F23.6
N3465 G01 X2.7608 Y-1.4684 F15.8
N3470 G03 X2.5347 Y-1.7559 I0.0697 J-0.2875 F12.0
N3475 G02 X2.4409 Y-1.8497 I-0.0937 J0. F23.6
N3480 G01 X1.2598 F15.8
N3485 G02 X1.206 Y-1.6791 I0. J0.0938 F23.6
N3490 G01 X1.7625 Y-1.2895 F15.8
N3495 G03 X1.8892 Y-1.0176 I-0.172 J0.2457 F12.0
N3500 G02 X1.9826 Y-0.9157 I0.0934 J0.0082 F23.6
N3505 G01 X2.3704 F15.8
N3510 G03 X2.5964 Y-0.8418 I-0.0871 J0.6487 F13.8
N3515 X2.6155 Y-0.8237 I-0.0247 J0.0453 F7.9
N3520 G01 X2.6233 Y-0.7987 F15.8
N3525 G00 Z1.0
N3530 M5
N3535 G91 G28 Z0 M09
N3540 G28 X0 Y0
N3545 G49 G90
N3550 M01

N3555 ( SIDE ROUGH2 SIDE2 )
N3560 T4 M06
N3565 G94
N3570 G00 G55 X2.8045 Y-1.1335 S7000 M03
N3575 G43 H4 Z1.0 M08
N3580 Z-3.0339
N3585 G01 Z-3.252 F8.7
N3590 X2.7358 Y-1.1307 F17.5
N3595 G02 X2.6779 Y-1.1587 I-0.4526 J0.8637
N3600 X2.7401 Y-1.1461 I0.1526 J-0.5972
N3605 G01 X2.794 Y-1.1034 
N3610 X2.8742 Y-1.2189 
N3615 X2.8962 Y-1.2841 
N3620 G02 X2.9184 Y-1.317 I-0.0516 J-0.0586
N3625 X2.958 Y-1.3141 I0.0253 J-0.0739
N3630 G01 X3.0228 Y-1.2912 
N3635 X3.0793 Y-1.2841 
N3640 X3.0236 Y-1.3243 
N3645 G03 X3.0156 Y-1.3256 I0.0079 J-0.0777
N3650 G02 X2.9782 Y-1.3208 I-0.0118 J0.0567
N3655 G03 X2.9708 Y-1.3176 I-0.0345 J-0.0701
N3660 G01 X2.9268 Y-1.2648 
N3665 X2.9836 Y-1.2841 
N3670 X3.0394 Y-1.3243 
N3675 G02 X3.0474 Y-1.3256 I-0.0079 J-0.0777
N3680 G03 X3.0848 Y-1.3208 I0.0118 J0.0567
N3685 G02 X3.0922 Y-1.3176 I0.0345 J-0.0701
N3690 G01 X3.1362 Y-1.2648 
N3695 X3.1887 Y-1.2189 
N3700 X3.1668 Y-1.2841 
N3705 G03 X3.1446 Y-1.317 I0.0516 J-0.0586
N3710 X3.105 Y-1.3141 I-0.0253 J-0.0739
N3715 G01 X3.0402 Y-1.2912 
N3720 X3.2735 Y-1.1037 
N3725 X3.3271 Y-1.1468 
N3730 G02 X3.4177 Y-1.168 I-0.0946 J-0.6091
N3735 X3.3323 Y-1.1287 I0.3621 J0.9009
N3740 G01 X3.2636 Y-1.1318 
N3745 X3.6233 Y-1.2322 
N3750 X3.5546 Y-1.2304 
N3755 G03 X3.472 Y-1.1879 I-0.3222 J-0.5255
N3760 X3.5619 Y-1.2132 I0.3077 J0.9209
N3765 G01 X3.6122 Y-1.2601 
N3770 X3.6367 Y-1.2219 
N3775 X3.5857 Y-1.1759 
N3780 G02 X3.3371 Y-1.0842 I0.194 J0.9088
N3785 G01 X3.2684 Y-1.0861 
N3790 X3.2604 Y-1.0312 
N3795 X3.3291 Y-1.0319 
N3800 G03 X3.6235 Y-1.1409 I0.4506 J0.7648
N3805 G01 X3.676 Y-1.1852 
N3810 X3.7818 Y-1.1417 
N3815 X3.7223 Y-1.1073 
N3820 X3.6853 
N3825 G02 X3.6757 Y-1.1067 I0. J0.0781
N3830 X3.2699 Y-0.9422 I0.104 J0.8396
N3835 G01 X3.2017 Y-0.9338 
N3840 X3.2538 Y-1.1442 
N3845 X3.3083 Y-1.1861 
N3850 G02 X3.5445 Y-1.2732 I-0.0759 J-0.5698
N3855 G01 X3.6131 Y-1.2766 
N3860 X3.6139 Y-1.3315 
N3865 X3.5456 Y-1.3244 
N3870 G03 X3.2763 Y-1.2245 I-0.3131 J-0.4315
N3875 G01 X3.2198 Y-1.1854 
N3880 X3.1374 Y-1.2445 
N3885 X3.2027 Y-1.2662 
N3890 G02 X3.2157 Y-1.2646 I0.0157 J-0.0765
N3895 X3.5883 Y-1.4168 I0.0167 J-0.4913
N3900 G01 X3.6542 Y-1.4362 
N3905 X3.6887 Y-1.4877 
N3910 X3.6815 Y-1.556 
N3915 G02 X3.7142 Y-1.6581 I-0.4491 J-0.1999
N3920 G01 X3.84 
N3925 X3.8995 Y-1.6237 
N3930 X4.041 Y-1.5405 
N3935 X4.1005 Y-1.5748 
N3940 X4.2289 
N3945 X4.1429 Y-1.5146 
N3950 G02 X4.129 Y-1.5046 I0.3297 J0.4708
N3955 G01 X4.0607 Y-1.4966 
N3960 X4.0636 Y-1.4418 
N3965 X4.1313 Y-1.4534 
N3970 G03 X4.1668 Y-1.4805 I0.3412 J0.4097
N3975 G01 X4.3609 Y-1.6165 
N3980 X4.0626 
N3985 X4.003 Y-1.5821 
N3990 X3.8936 Y-1.6237 
N3995 X3.9531 Y-1.6581 
N4000 X4.4929 
N4005 X4.1906 Y-1.4464 
N4010 G02 X4.0949 Y-1.3584 I0.2819 J0.4026
N4015 G01 X4.0304 Y-1.3346 
N4020 X4.0022 Y-1.2865 
N4025 X4.0132 Y-1.2186 
N4030 G02 X3.9852 Y-1.1073 I0.4594 J0.1748
N4035 G01 X3.8503 
N4040 X3.7908 Y-1.1417 
N4045 G00 Z1.0
N4050 X2.8045 Y-1.1335
N4055 Z-3.152
N4060 G01 Z-3.3701 F8.7
N4065 X2.7358 Y-1.1307 F17.5
N4070 G02 X2.6779 Y-1.1587 I-0.4526 J0.8637
N4075 X2.7401 Y-1.1461 I0.1526 J-0.5972
N4080 G01 X2.794 Y-1.1034 
N4085 X2.8742 Y-1.2189 
N4090 X2.8962 Y-1.2841 
N4095 G02 X2.9184 Y-1.317 I-0.0516 J-0.0586
N4100 X2.958 Y-1.3141 I0.0253 J-0.0739
N4105 G01 X3.0228 Y-1.2912 
N4110 X3.0793 Y-1.2841 
N4115 X3.0236 Y-1.3243 
N4120 G03 X3.0156 Y-1.3256 I0.0079 J-0.0777
N4125 G02 X2.9782 Y-1.3208 I-0.0118 J0.0567
N4130 G03 X2.9708 Y-1.3176 I-0.0345 J-0.0701
N4135 G01 X2.9268 Y-1.2648 
N4140 X2.9836 Y-1.2841 
N4145 X3.0394 Y-1.3243 
N4150 G02 X3.0474 Y-1.3256 I-0.0079 J-0.0777
N4155 G03 X3.0848 Y-1.3208 I0.0118 J0.0567
N4160 G02 X3.0922 Y-1.3176 I0.0345 J-0.0701
N4165 G01 X3.1362 Y-1.2648 
N4170 X3.1887 Y-1.2189 
N4175 X3.1668 Y-1.2841 
N4180 G03 X3.1446 Y-1.317 I0.0516 J-0.0586
N4185 X3.105 Y-1.3141 I-0.0253 J-0.0739
N4190 G01 X3.0402 Y-1.2912 
N4195 X3.2735 Y-1.1037 
N4200 X3.3271 Y-1.1468 
N4205 G02 X3.4177 Y-1.168 I-0.0946 J-0.6091
N4210 X3.3323 Y-1.1287 I0.3621 J0.9009
N4215 G01 X3.2636 Y-1.1318 
N4220 X3.6233 Y-1.2322 
N4225 X3.5546 Y-1.2304 
N4230 G03 X3.472 Y-1.1879 I-0.3222 J-0.5255
N4235 X3.5619 Y-1.2132 I0.3077 J0.9209
N4240 G01 X3.6122 Y-1.2601 
N4245 X3.6367 Y-1.2219 
N4250 X3.5857 Y-1.1759 
N4255 G02 X3.3371 Y-1.0842 I0.194 J0.9088
N4260 G01 X3.2684 Y-1.0861 
N4265 X3.2604 Y-1.0312 
N4270 X3.3291 Y-1.0319 
N4275 G03 X3.6235 Y-1.1409 I0.4506 J0.7648
N4280 G01 X3.676 Y-1.1852 
N4285 X3.7818 Y-1.1417 
N4290 X3.7223 Y-1.1073 
N4295 X3.6853 
N4300 G02 X3.6757 Y-1.1067 I0. J0.0781
N4305 X3.2699 Y-0.9422 I0.104 J0.8396
N4310 G01 X3.2017 Y-0.9338 
N4315 X3.2538 Y-1.1442 
N4320 X3.3083 Y-1.1861 
N4325 G02 X3.5445 Y-1.2732 I-0.0759 J-0.5698
N4330 G01 X3.6131 Y-1.2766 
N4335 X3.6139 Y-1.3315 
N4340 X3.5456 Y-1.3244 
N4345 G03 X3.2763 Y-1.2245 I-0.3131 J-0.4315
N4350 G01 X3.2198 Y-1.1854 
N4355 X3.1374 Y-1.2445 
N4360 X3.2027 Y-1.2662 
N4365 G02 X3.2157 Y-1.2646 I0.0157 J-0.0765
N4370 X3.5883 Y-1.4168 I0.0167 J-0.4913
N4375 G01 X3.6542 Y-1.4362 
N4380 X3.6887 Y-1.4877 
N4385 X3.6815 Y-1.556 
N4390 G02 X3.7142 Y-1.6581 I-0.4491 J-0.1999
N4395 G01 X3.84 
N4400 X3.8995 Y-1.6237 
N4405 X4.041 Y-1.5405 
N4410 X4.1005 Y-1.5748 
N4415 X4.2289 
N4420 X4.1429 Y-1.5146 
N4425 G02 X4.129 Y-1.5046 I0.3297 J0.4708
N4430 G01 X4.0607 Y-1.4966 
N4435 X4.0636 Y-1.4418 
N4440 X4.1313 Y-1.4534 
N4445 G03 X4.1668 Y-1.4805 I0.3412 J0.4097
N4450 G01 X4.3609 Y-1.6165 
N4455 X4.0626 
N4460 X4.003 Y-1.5821 
N4465 X3.8936 Y-1.6237 
N4470 X3.9531 Y-1.6581 
N4475 X4.4929 
N4480 X4.1906 Y-1.4464 
N4485 G02 X4.0949 Y-1.3584 I0.2819 J0.4026
N4490 G01 X4.0304 Y-1.3346 
N4495 X4.0022 Y-1.2865 
N4500 X4.0132 Y-1.2186 
N4505 G02 X3.9852 Y-1.1073 I0.4594 J0.1748
N4510 G01 X3.8503 
N4515 X3.7908 Y-1.1417 
N4520 G00 Z1.0
N4525 X2.8045 Y-1.1335
N4530 Z-3.2701
N4535 G01 Z-3.4882 F8.7
N4540 X2.7358 Y-1.1307 F17.5
N4545 G02 X2.6779 Y-1.1587 I-0.4526 J0.8637
N4550 X2.7401 Y-1.1461 I0.1526 J-0.5972
N4555 G01 X2.794 Y-1.1034 
N4560 X2.8742 Y-1.2189 
N4565 X2.8962 Y-1.2841 
N4570 G02 X2.9184 Y-1.317 I-0.0516 J-0.0586
N4575 X2.958 Y-1.3141 I0.0253 J-0.0739
N4580 G01 X3.0228 Y-1.2912 
N4585 X3.0793 Y-1.2841 
N4590 X3.0236 Y-1.3243 
N4595 G03 X3.0156 Y-1.3256 I0.0079 J-0.0777
N4600 G02 X2.9782 Y-1.3208 I-0.0118 J0.0567
N4605 G03 X2.9708 Y-1.3176 I-0.0345 J-0.0701
N4610 G01 X2.9268 Y-1.2648 
N4615 X2.9836 Y-1.2841 
N4620 X3.0394 Y-1.3243 
N4625 G02 X3.0474 Y-1.3256 I-0.0079 J-0.0777
N4630 G03 X3.0848 Y-1.3208 I0.0118 J0.0567
N4635 G02 X3.0922 Y-1.3176 I0.0345 J-0.0701
N4640 G01 X3.1362 Y-1.2648 
N4645 X3.1887 Y-1.2189 
N4650 X3.1668 Y-1.2841 
N4655 G03 X3.1446 Y-1.317 I0.0516 J-0.0586
N4660 X3.105 Y-1.3141 I-0.0253 J-0.0739
N4665 G01 X3.0402 Y-1.2912 
N4670 X3.2735 Y-1.1037 
N4675 X3.3271 Y-1.1468 
N4680 G02 X3.4177 Y-1.168 I-0.0946 J-0.6091
N4685 X3.3323 Y-1.1287 I0.3621 J0.9009
N4690 G01 X3.2636 Y-1.1318 
N4695 X3.6233 Y-1.2322 
N4700 X3.5546 Y-1.2304 
N4705 G03 X3.472 Y-1.1879 I-0.3222 J-0.5255
N4710 X3.5619 Y-1.2132 I0.3077 J0.9209
N4715 G01 X3.6122 Y-1.2601 
N4720 X3.6367 Y-1.2219 
N4725 X3.5857 Y-1.1759 
N4730 G02 X3.3371 Y-1.0842 I0.194 J0.9088
N4735 G01 X3.2684 Y-1.0861 
N4740 X3.2604 Y-1.0312 
N4745 X3.3291 Y-1.0319 
N4750 G03 X3.6235 Y-1.1409 I0.4506 J0.7648
N4755 G01 X3.676 Y-1.1852 
N4760 X3.7818 Y-1.1417 
N4765 X3.7223 Y-1.1073 
N4770 X3.6853 
N4775 G02 X3.6757 Y-1.1067 I0. J0.0781
N4780 X3.2699 Y-0.9422 I0.104 J0.8396
N4785 G01 X3.2017 Y-0.9338 
N4790 X3.2538 Y-1.1442 
N4795 X3.3083 Y-1.1861 
N4800 G02 X3.5445 Y-1.2732 I-0.0759 J-0.5698
N4805 G01 X3.6131 Y-1.2766 
N4810 X3.6139 Y-1.3315 
N4815 X3.5456 Y-1.3244 
N4820 G03 X3.2763 Y-1.2245 I-0.3131 J-0.4315
N4825 G01 X3.2198 Y-1.1854 
N4830 X3.1374 Y-1.2445 
N4835 X3.2027 Y-1.2662 
N4840 G02 X3.2157 Y-1.2646 I0.0157 J-0.0765
N4845 X3.5883 Y-1.4168 I0.0167 J-0.4913
N4850 G01 X3.6542 Y-1.4362 
N4855 X3.6887 Y-1.4877 
N4860 X3.6815 Y-1.556 
N4865 G02 X3.7142 Y-1.6581 I-0.4491 J-0.1999
N4870 G01 X3.84 
N4875 X3.8995 Y-1.6237 
N4880 X4.041 Y-1.5405 
N4885 X4.1005 Y-1.5748 
N4890 X4.2289 
N4895 X4.1429 Y-1.5146 
N4900 G02 X4.129 Y-1.5046 I0.3297 J0.4708
N4905 G01 X4.0607 Y-1.4966 
N4910 X4.0636 Y-1.4418 
N4915 X4.1313 Y-1.4534 
N4920 G03 X4.1668 Y-1.4805 I0.3412 J0.4097
N4925 G01 X4.3609 Y-1.6165 
N4930 X4.0626 
N4935 X4.003 Y-1.5821 
N4940 X3.8936 Y-1.6237 
N4945 X3.9531 Y-1.6581 
N4950 X4.4929 
N4955 X4.1906 Y-1.4464 
N4960 G02 X4.0949 Y-1.3584 I0.2819 J0.4026
N4965 G01 X4.0304 Y-1.3346 
N4970 X4.0022 Y-1.2865 
N4975 X4.0132 Y-1.2186 
N4980 G02 X3.9852 Y-1.1073 I0.4594 J0.1748
N4985 G01 X3.8503 
N4990 X3.7908 Y-1.1417 
N4995 G00 Z1.0
N5000 X2.8045 Y-1.1335
N5005 Z-3.3882
N5010 G01 Z-3.6063 F8.7
N5015 X2.7358 Y-1.1307 F17.5
N5020 G02 X2.6779 Y-1.1587 I-0.4526 J0.8637
N5025 X2.7401 Y-1.1461 I0.1526 J-0.5972
N5030 G01 X2.794 Y-1.1034 
N5035 X2.8742 Y-1.2189 
N5040 X2.8962 Y-1.2841 
N5045 G02 X2.9184 Y-1.317 I-0.0516 J-0.0586
N5050 X2.958 Y-1.3141 I0.0253 J-0.0739
N5055 G01 X3.0228 Y-1.2912 
N5060 X3.0793 Y-1.2841 
N5065 X3.0236 Y-1.3243 
N5070 G03 X3.0156 Y-1.3256 I0.0079 J-0.0777
N5075 G02 X2.9782 Y-1.3208 I-0.0118 J0.0567
N5080 G03 X2.9708 Y-1.3176 I-0.0345 J-0.0701
N5085 G01 X2.9268 Y-1.2648 
N5090 X2.9836 Y-1.2841 
N5095 X3.0394 Y-1.3243 
N5100 G02 X3.0474 Y-1.3256 I-0.0079 J-0.0777
N5105 G03 X3.0848 Y-1.3208 I0.0118 J0.0567
N5110 G02 X3.0922 Y-1.3176 I0.0345 J-0.0701
N5115 G01 X3.1362 Y-1.2648 
N5120 X3.1887 Y-1.2189 
N5125 X3.1668 Y-1.2841 
N5130 G03 X3.1446 Y-1.317 I0.0516 J-0.0586
N5135 X3.105 Y-1.3141 I-0.0253 J-0.0739
N5140 G01 X3.0402 Y-1.2912 
N5145 X3.2735 Y-1.1037 
N5150 X3.3271 Y-1.1468 
N5155 G02 X3.4177 Y-1.168 I-0.0946 J-0.6091
N5160 X3.3323 Y-1.1287 I0.3621 J0.9009
N5165 G01 X3.2636 Y-1.1318 
N5170 X3.6233 Y-1.2322 
N5175 X3.5546 Y-1.2304 
N5180 G03 X3.472 Y-1.1879 I-0.3222 J-0.5255
N5185 X3.5619 Y-1.2132 I0.3077 J0.9209
N5190 G01 X3.6122 Y-1.2601 
N5195 X3.6367 Y-1.2219 
N5200 X3.5857 Y-1.1759 
N5205 G02 X3.3371 Y-1.0842 I0.194 J0.9088
N5210 G01 X3.2684 Y-1.0861 
N5215 X3.2604 Y-1.0312 
N5220 X3.3291 Y-1.0319 
N5225 G03 X3.6235 Y-1.1409 I0.4506 J0.7648
N5230 G01 X3.676 Y-1.1852 
N5235 X3.7818 Y-1.1417 
N5240 X3.7223 Y-1.1073 
N5245 X3.6853 
N5250 G02 X3.6757 Y-1.1067 I0. J0.0781
N5255 X3.2699 Y-0.9422 I0.104 J0.8396
N5260 G01 X3.2017 Y-0.9338 
N5265 X3.2538 Y-1.1442 
N5270 X3.3083 Y-1.1861 
N5275 G02 X3.5445 Y-1.2732 I-0.0759 J-0.5698
N5280 G01 X3.6131 Y-1.2766 
N5285 X3.6139 Y-1.3315 
N5290 X3.5456 Y-1.3244 
N5295 G03 X3.2763 Y-1.2245 I-0.3131 J-0.4315
N5300 G01 X3.2198 Y-1.1854 
N5305 X3.1374 Y-1.2445 
N5310 X3.2027 Y-1.2662 
N5315 G02 X3.2157 Y-1.2646 I0.0157 J-0.0765
N5320 X3.5883 Y-1.4168 I0.0167 J-0.4913
N5325 G01 X3.6542 Y-1.4362 
N5330 X3.6887 Y-1.4877 
N5335 X3.6815 Y-1.556 
N5340 G02 X3.7142 Y-1.6581 I-0.4491 J-0.1999
N5345 G01 X3.84 
N5350 X3.8995 Y-1.6237 
N5355 X4.041 Y-1.5405 
N5360 X4.1005 Y-1.5748 
N5365 X4.2289 
N5370 X4.1429 Y-1.5146 
N5375 G02 X4.129 Y-1.5046 I0.3297 J0.4708
N5380 G01 X4.0607 Y-1.4966 
N5385 X4.0636 Y-1.4418 
N5390 X4.1313 Y-1.4534 
N5395 G03 X4.1668 Y-1.4805 I0.3412 J0.4097
N5400 G01 X4.3609 Y-1.6165 
N5405 X4.0626 
N5410 X4.003 Y-1.5821 
N5415 X3.8936 Y-1.6237 
N5420 X3.9531 Y-1.6581 
N5425 X4.4929 
N5430 X4.1906 Y-1.4464 
N5435 G02 X4.0949 Y-1.3584 I0.2819 J0.4026
N5440 G01 X4.0304 Y-1.3346 
N5445 X4.0022 Y-1.2865 
N5450 X4.0132 Y-1.2186 
N5455 G02 X3.9852 Y-1.1073 I0.4594 J0.1748
N5460 G01 X3.8503 
N5465 X3.7908 Y-1.1417 
N5470 G00 Z1.0
N5475 X3.0768 Y-0.8668
N5480 Z-3.0339
N5485 G01 Z-3.252 F8.7
N5490 X3.0687 Y-0.7985 F17.5
N5495 G02 X3.0339 Y-0.7485 I0.711 J0.5315
N5500 X2.9993 Y-0.7986 I-0.7507 J0.4814
N5505 G01 X2.9914 Y-0.8669 
N5510 X2.8884 Y-0.9149 
N5515 X2.904 Y-0.848 
N5520 G03 X3.0338 Y-0.6663 I-0.6208 J0.5809
N5525 X3.1642 Y-0.8475 I0.7459 J0.3993
N5530 G01 X3.18 Y-0.9144 
N5535 X3.0768 Y-0.8668 
N5540 Z-3.3701 F8.7
N5545 X3.0687 Y-0.7985 F17.5
N5550 G02 X3.0339 Y-0.7485 I0.711 J0.5315
N5555 X2.9993 Y-0.7986 I-0.7507 J0.4814
N5560 G01 X2.9914 Y-0.8669 
N5565 X2.8884 Y-0.9149 
N5570 X2.904 Y-0.848 
N5575 G03 X3.0338 Y-0.6663 I-0.6208 J0.5809
N5580 X3.1642 Y-0.8475 I0.7459 J0.3993
N5585 G01 X3.18 Y-0.9144 
N5590 X3.0768 Y-0.8668 
N5595 Z-3.4882 F8.7
N5600 X3.0687 Y-0.7985 F17.5
N5605 G02 X3.0339 Y-0.7485 I0.711 J0.5315
N5610 X2.9993 Y-0.7986 I-0.7507 J0.4814
N5615 G01 X2.9914 Y-0.8669 
N5620 X2.8884 Y-0.9149 
N5625 X2.904 Y-0.848 
N5630 G03 X3.0338 Y-0.6663 I-0.6208 J0.5809
N5635 X3.1642 Y-0.8475 I0.7459 J0.3993
N5640 G01 X3.18 Y-0.9144 
N5645 X3.0768 Y-0.8668 
N5650 Z-3.6063 F8.7
N5655 X3.0687 Y-0.7985 F17.5
N5660 G02 X3.0339 Y-0.7485 I0.711 J0.5315
N5665 X2.9993 Y-0.7986 I-0.7507 J0.4814
N5670 G01 X2.9914 Y-0.8669 
N5675 X2.8884 Y-0.9149 
N5680 X2.904 Y-0.848 
N5685 G03 X3.0338 Y-0.6663 I-0.6208 J0.5809
N5690 X3.1642 Y-0.8475 I0.7459 J0.3993
N5695 G01 X3.18 Y-0.9144 
N5700 G00 Z1.0
N5705 X2.4396 Y-1.2322
N5710 Z-3.0339
N5715 G01 Z-3.252 F8.7
N5720 X2.5084 Y-1.2304 F17.5
N5725 G02 X2.56 Y-1.202 I0.3222 J-0.5255
N5730 X2.5029 Y-1.2171 I-0.2767 J0.935
N5735 G01 X2.4526 Y-1.264 
N5740 X2.4498 Y-1.2766 
N5745 X2.5185 Y-1.2732 
N5750 G02 X2.7584 Y-1.1857 I0.312 J-0.4827
N5755 G01 X2.8132 Y-1.1441 
N5760 X2.8466 Y-1.1855 
N5765 X2.7899 Y-1.2243 
N5770 G03 X2.5174 Y-1.3244 I0.0407 J-0.5316
N5775 G01 X2.449 Y-1.3315 
N5780 X2.4087 Y-1.4362 
N5785 X2.4747 Y-1.4168 
N5790 G02 X2.8473 Y-1.2646 I0.3558 J-0.3391
N5795 X2.8618 Y-1.2665 I-0.0027 J-0.0781
N5800 G01 X2.9274 Y-1.2461 
N5805 X2.7995 Y-1.0878 
N5810 X2.7308 Y-1.0862 
N5815 G02 X2.4802 Y-1.1795 I-0.4475 J0.8192
N5820 G01 X2.4292 Y-1.2256 
N5825 X2.3918 Y-1.1888 
N5830 X2.4441 Y-1.1442 
N5835 G03 X2.7386 Y-1.0338 I-0.1609 J0.8772
N5840 G01 X2.8074 Y-1.033 
N5845 X2.8657 Y-0.9354 
N5850 X2.7975 Y-0.944 
N5855 G02 X2.4193 Y-1.1063 I-0.5143 J0.677
N5860 X2.4068 Y-1.1073 I-0.0125 J0.0771
N5865 G01 X2.3407 
N5870 X2.2812 Y-1.1417 
N5875 X2.2722 
N5880 X2.2127 Y-1.1073 
N5885 X2.0778 
N5890 G02 X2.0498 Y-1.2186 I-0.4874 J0.0635
N5895 G01 X2.0607 Y-1.2865 
N5900 X2.0022 Y-1.4966 
N5905 X1.9339 Y-1.5046 
N5910 G02 X1.9201 Y-1.5146 I-0.3435 J0.4608
N5915 G01 X1.8341 Y-1.5748 
N5920 X1.9624 
N5925 X2.022 Y-1.5405 
N5930 X2.06 Y-1.5821 
N5935 X2.0004 Y-1.6165 
N5940 X1.702 
N5945 X1.8962 Y-1.4805 
N5950 G03 X1.9316 Y-1.4534 I-0.3058 J0.4367
N5955 G01 X1.9994 Y-1.4418 
N5960 X2.0326 Y-1.3346 
N5965 X1.9681 Y-1.3584 
N5970 G02 X1.8723 Y-1.4464 I-0.3777 J0.3146
N5975 G01 X1.57 Y-1.6581 
N5980 X2.1099 
N5985 X2.1694 Y-1.6237 
N5990 X2.1635 
N5995 X2.223 Y-1.6581 
N6000 X2.3488 
N6005 G02 X2.3815 Y-1.556 I0.4817 J-0.0978
N6010 G01 X2.3743 Y-1.4877 
N6015 X2.4396 Y-1.2322 
N6020 Z-3.3701 F8.7
N6025 X2.5084 Y-1.2304 F17.5
N6030 G02 X2.56 Y-1.202 I0.3222 J-0.5255
N6035 X2.5029 Y-1.2171 I-0.2767 J0.935
N6040 G01 X2.4526 Y-1.264 
N6045 X2.4498 Y-1.2766 
N6050 X2.5185 Y-1.2732 
N6055 G02 X2.7584 Y-1.1857 I0.312 J-0.4827
N6060 G01 X2.8132 Y-1.1441 
N6065 X2.8466 Y-1.1855 
N6070 X2.7899 Y-1.2243 
N6075 G03 X2.5174 Y-1.3244 I0.0407 J-0.5316
N6080 G01 X2.449 Y-1.3315 
N6085 X2.4087 Y-1.4362 
N6090 X2.4747 Y-1.4168 
N6095 G02 X2.8473 Y-1.2646 I0.3558 J-0.3391
N6100 X2.8618 Y-1.2665 I-0.0027 J-0.0781
N6105 G01 X2.9274 Y-1.2461 
N6110 X2.7995 Y-1.0878 
N6115 X2.7308 Y-1.0862 
N6120 G02 X2.4802 Y-1.1795 I-0.4475 J0.8192
N6125 G01 X2.4292 Y-1.2256 
N6130 X2.3918 Y-1.1888 
N6135 X2.4441 Y-1.1442 
N6140 G03 X2.7386 Y-1.0338 I-0.1609 J0.8772
N6145 G01 X2.8074 Y-1.033 
N6150 X2.8657 Y-0.9354 
N6155 X2.7975 Y-0.944 
N6160 G02 X2.4193 Y-1.1063 I-0.5143 J0.677
N6165 X2.4068 Y-1.1073 I-0.0125 J0.0771
N6170 G01 X2.3407 
N6175 X2.2812 Y-1.1417 
N6180 X2.2722 
N6185 X2.2127 Y-1.1073 
N6190 X2.0778 
N6195 G02 X2.0498 Y-1.2186 I-0.4874 J0.0635
N6200 G01 X2.0607 Y-1.2865 
N6205 X2.0022 Y-1.4966 
N6210 X1.9339 Y-1.5046 
N6215 G02 X1.9201 Y-1.5146 I-0.3435 J0.4608
N6220 G01 X1.8341 Y-1.5748 
N6225 X1.9624 
N6230 X2.022 Y-1.5405 
N6235 X2.06 Y-1.5821 
N6240 X2.0004 Y-1.6165 
N6245 X1.702 
N6250 X1.8962 Y-1.4805 
N6255 G03 X1.9316 Y-1.4534 I-0.3058 J0.4367
N6260 G01 X1.9994 Y-1.4418 
N6265 X2.0326 Y-1.3346 
N6270 X1.9681 Y-1.3584 
N6275 G02 X1.8723 Y-1.4464 I-0.3777 J0.3146
N6280 G01 X1.57 Y-1.6581 
N6285 X2.1099 
N6290 X2.1694 Y-1.6237 
N6295 X2.1635 
N6300 X2.223 Y-1.6581 
N6305 X2.3488 
N6310 G02 X2.3815 Y-1.556 I0.4817 J-0.0978
N6315 G01 X2.3743 Y-1.4877 
N6320 X2.4396 Y-1.2322 
N6325 Z-3.4882 F8.7
N6330 X2.5084 Y-1.2304 F17.5
N6335 G02 X2.56 Y-1.202 I0.3222 J-0.5255
N6340 X2.5029 Y-1.2171 I-0.2767 J0.935
N6345 G01 X2.4526 Y-1.264 
N6350 X2.4498 Y-1.2766 
N6355 X2.5185 Y-1.2732 
N6360 G02 X2.7584 Y-1.1857 I0.312 J-0.4827
N6365 G01 X2.8132 Y-1.1441 
N6370 X2.8466 Y-1.1855 
N6375 X2.7899 Y-1.2243 
N6380 G03 X2.5174 Y-1.3244 I0.0407 J-0.5316
N6385 G01 X2.449 Y-1.3315 
N6390 X2.4087 Y-1.4362 
N6395 X2.4747 Y-1.4168 
N6400 G02 X2.8473 Y-1.2646 I0.3558 J-0.3391
N6405 X2.8618 Y-1.2665 I-0.0027 J-0.0781
N6410 G01 X2.9274 Y-1.2461 
N6415 X2.7995 Y-1.0878 
N6420 X2.7308 Y-1.0862 
N6425 G02 X2.4802 Y-1.1795 I-0.4475 J0.8192
N6430 G01 X2.4292 Y-1.2256 
N6435 X2.3918 Y-1.1888 
N6440 X2.4441 Y-1.1442 
N6445 G03 X2.7386 Y-1.0338 I-0.1609 J0.8772
N6450 G01 X2.8074 Y-1.033 
N6455 X2.8657 Y-0.9354 
N6460 X2.7975 Y-0.944 
N6465 G02 X2.4193 Y-1.1063 I-0.5143 J0.677
N6470 X2.4068 Y-1.1073 I-0.0125 J0.0771
N6475 G01 X2.3407 
N6480 X2.2812 Y-1.1417 
N6485 X2.2722 
N6490 X2.2127 Y-1.1073 
N6495 X2.0778 
N6500 G02 X2.0498 Y-1.2186 I-0.4874 J0.0635
N6505 G01 X2.0607 Y-1.2865 
N6510 X2.0022 Y-1.4966 
N6515 X1.9339 Y-1.5046 
N6520 G02 X1.9201 Y-1.5146 I-0.3435 J0.4608
N6525 G01 X1.8341 Y-1.5748 
N6530 X1.9624 
N6535 X2.022 Y-1.5405 
N6540 X2.06 Y-1.5821 
N6545 X2.0004 Y-1.6165 
N6550 X1.702 
N6555 X1.8962 Y-1.4805 
N6560 G03 X1.9316 Y-1.4534 I-0.3058 J0.4367
N6565 G01 X1.9994 Y-1.4418 
N6570 X2.0326 Y-1.3346 
N6575 X1.9681 Y-1.3584 
N6580 G02 X1.8723 Y-1.4464 I-0.3777 J0.3146
N6585 G01 X1.57 Y-1.6581 
N6590 X2.1099 
N6595 X2.1694 Y-1.6237 
N6600 X2.1635 
N6605 X2.223 Y-1.6581 
N6610 X2.3488 
N6615 G02 X2.3815 Y-1.556 I0.4817 J-0.0978
N6620 G01 X2.3743 Y-1.4877 
N6625 X2.4396 Y-1.2322 
N6630 Z-3.6063 F8.7
N6635 X2.5084 Y-1.2304 F17.5
N6640 G02 X2.56 Y-1.202 I0.3222 J-0.5255
N6645 X2.5029 Y-1.2171 I-0.2767 J0.935
N6650 G01 X2.4526 Y-1.264 
N6655 X2.4498 Y-1.2766 
N6660 X2.5185 Y-1.2732 
N6665 G02 X2.7584 Y-1.1857 I0.312 J-0.4827
N6670 G01 X2.8132 Y-1.1441 
N6675 X2.8466 Y-1.1855 
N6680 X2.7899 Y-1.2243 
N6685 G03 X2.5174 Y-1.3244 I0.0407 J-0.5316
N6690 G01 X2.449 Y-1.3315 
N6695 X2.4087 Y-1.4362 
N6700 X2.4747 Y-1.4168 
N6705 G02 X2.8473 Y-1.2646 I0.3558 J-0.3391
N6710 X2.8618 Y-1.2665 I-0.0027 J-0.0781
N6715 G01 X2.9274 Y-1.2461 
N6720 X2.7995 Y-1.0878 
N6725 X2.7308 Y-1.0862 
N6730 G02 X2.4802 Y-1.1795 I-0.4475 J0.8192
N6735 G01 X2.4292 Y-1.2256 
N6740 X2.3918 Y-1.1888 
N6745 X2.4441 Y-1.1442 
N6750 G03 X2.7386 Y-1.0338 I-0.1609 J0.8772
N6755 G01 X2.8074 Y-1.033 
N6760 X2.8657 Y-0.9354 
N6765 X2.7975 Y-0.944 
N6770 G02 X2.4193 Y-1.1063 I-0.5143 J0.677
N6775 X2.4068 Y-1.1073 I-0.0125 J0.0771
N6780 G01 X2.3407 
N6785 X2.2812 Y-1.1417 
N6790 X2.2722 
N6795 X2.2127 Y-1.1073 
N6800 X2.0778 
N6805 G02 X2.0498 Y-1.2186 I-0.4874 J0.0635
N6810 G01 X2.0607 Y-1.2865 
N6815 X2.0022 Y-1.4966 
N6820 X1.9339 Y-1.5046 
N6825 G02 X1.9201 Y-1.5146 I-0.3435 J0.4608
N6830 G01 X1.8341 Y-1.5748 
N6835 X1.9624 
N6840 X2.022 Y-1.5405 
N6845 X2.06 Y-1.5821 
N6850 X2.0004 Y-1.6165 
N6855 X1.702 
N6860 X1.8962 Y-1.4805 
N6865 G03 X1.9316 Y-1.4534 I-0.3058 J0.4367
N6870 G01 X1.9994 Y-1.4418 
N6875 X2.0326 Y-1.3346 
N6880 X1.9681 Y-1.3584 
N6885 G02 X1.8723 Y-1.4464 I-0.3777 J0.3146
N6890 G01 X1.57 Y-1.6581 
N6895 X2.1099 
N6900 X2.1694 Y-1.6237 
N6905 X2.1635 
N6910 X2.223 Y-1.6581 
N6915 X2.3488 
N6920 G02 X2.3815 Y-1.556 I0.4817 J-0.0978
N6925 G01 X2.3743 Y-1.4877 
N6930 X2.4068 Y-1.5068 F10.5
N6935 G03 X2.4348 Y-1.4915 I-0.0006 J0.0344 F5.3
N6940 G02 X2.8467 Y-1.2803 I0.3957 J-0.2644 F12.1
N6945 X2.905 Y-1.3265 I-0.0021 J-0.0625 F15.8
N6950 G01 X2.9084 Y-1.3394 F10.5
N6955 G02 X2.9713 Y-1.3349 I0.0353 J-0.0516 F15.8
N6960 G03 X3.0188 Y-1.3409 I0.0325 J0.066 F5.7
N6965 G02 X3.0442 Y-1.3409 I0.0127 J-0.0612 F15.8
N6970 G03 X3.0917 Y-1.3349 I0.015 J0.072 F5.7
N6975 G02 X3.1546 Y-1.3394 I0.0276 J-0.0561 F15.8
N6980 G01 X3.158 Y-1.3265 F10.5
N6985 G02 X3.2162 Y-1.2803 I0.0604 J-0.0162 F15.8
N6990 X3.7012 Y-1.6737 I0.0162 J-0.4756 F12.1
N6995 G01 X4.5425 F10.5
N7000 X4.1996 Y-1.4336 
N7005 G02 X3.9991 Y-1.0917 I0.273 J0.3898 F12.1
N7010 G01 X3.6853 F10.5
N7015 G02 X3.6776 Y-1.0912 I0. J0.0625 F15.8
N7020 X3.0338 Y-0.632 I0.1021 J0.8241 F11.4
N7025 X2.4168 Y-1.0909 I-0.7505 J0.3649
N7030 X2.4068 Y-1.0917 I-0.01 J0.0617 F15.8
N7035 G01 X2.0639 F10.5
N7040 G02 X1.8634 Y-1.4336 I-0.4735 J0.0479 F12.1
N7045 G01 X1.5205 Y-1.6737 F10.5
N7050 X2.3618 
N7055 G02 X2.5097 Y-1.4044 I0.4688 J-0.0822 F12.1
N7060 G03 X2.5188 Y-1.3908 I-0.0232 J0.0254 F5.3
N7065 G01 X2.5206 Y-1.3744 F10.5
N7070 G00 Z1.0
N7075 M5
N7080 G91 G28 Z0 M09
N7085 G28 X0 Y0
N7090 G49 G90
N7095 M01

N7100 ( SIDE ROUGH1 SIDE3 )
N7105 T5 M06
N7110 G94
N7115 G00 G55 X0.2571 Y-4.9937 S2482 M03
N7120 G43 H5 Z1.0 M08
N7125 Z-3.5063
N7130 G01 Z-4.0 F24.8
N7135 X0.0147 Y-4.5 F49.6
N7140 G02 X-0.5 Y-3.9853 I1.0483 J1.563
N7145 G01 X-0.9937 Y-3.7429 
N7150 G00 Z1.0
N7155 X5.6411 Y-4.7098
N7160 Z-3.5063
N7165 G01 Z-4.0 F24.8
N7170 X5.1416 Y-4.4795 F49.6
N7175 G02 X5.0 Y-4.486 I-0.1416 J1.5425
N7180 G01 X1.063 
N7185 G02 X-0.486 Y-2.937 I0. J1.549
N7190 G01 Y1.0 
N7195 G02 X-0.4795 Y1.1416 I1.549 J0.
N7200 G01 X-0.7098 Y1.6411 
N7205 X-0.1023 Y2.045 
N7210 X-0.0464 Y1.4978 
N7215 G03 X-0.153 Y1.0 I1.1094 J-0.4978
N7220 G01 Y-2.937 
N7225 G03 X1.063 Y-4.153 I1.216 J0.
N7230 G01 X5.0 
N7235 G03 X5.4978 Y-4.0464 I0. J1.216
N7240 G01 X6.045 Y-4.1023 
N7245 X6.0483 Y-3.6218 
N7250 X5.5 Y-3.6648 
N7255 G02 X5.0 Y-3.82 I-0.5 J0.7278
N7260 G01 X1.063 
N7265 G02 X0.18 Y-2.937 I0. J0.883
N7270 G01 Y1.0 
N7275 G02 X0.3352 Y1.5 I0.883 J0.
N7280 G01 X0.3782 Y2.0483 
N7285 X1.1523 Y1.9484 
N7290 X0.8339 Y1.5 
N7295 G03 X0.513 Y1.0 I0.2291 J-0.5
N7300 G01 Y-2.937 
N7305 G03 X1.063 Y-3.487 I0.55 J0.
N7310 G01 X5.0 
N7315 G03 X5.5 Y-3.1661 I0. J0.55
N7320 G01 X5.9484 Y-2.8477 

N7325 ( SIDE FINISH SIDE3 )
N7330 S3819 
N7335 X5.775 Y-2.4607 F45.8
N7340 X5.5 Y-2.937 
N7345 G02 X5.0 Y-3.437 I-0.5 J0. F68.7
N7350 G01 X1.063 F45.8
N7355 G02 X0.563 Y-2.937 I0. J0.5 F68.7
N7360 G01 Y1.0 F45.8
N7365 G02 X1.063 Y1.5 I0.5 J0. F68.7
N7370 G01 X1.5393 Y1.775 F45.8
N7375 G00 Z1.0
N7380 M5
N7385 G0 G91 G28 Z0 M09
N7390 G28 X0 Y0
N7395 G49 G90
N7400 M30
%
